images/stump_single.svg

<?xml version="1.0" encoding="UTF-8" standalone="no"?>
<svg xmlns:dc="http://purl.org/dc/elements/1.1/" xmlns:cc="http://creativecommons.org/ns#" xmlns:rdf="http://www.w3.org/1999/02/22-rdf-syntax-ns#" xmlns:svg="http://www.w3.org/2000/svg" xmlns="http://www.w3.org/2000/svg" id="svg8" version="1.1" viewBox="0 0 210 297" height="297mm" width="210mm">
  <defs id="defs2" />
  <metadata id="metadata5">
    <rdf:RDF>
      <cc:Work rdf:about="">
        <dc:format>image/svg+xml</dc:format>
        <dc:type rdf:resource="http://purl.org/dc/dcmitype/StillImage" />
        <dc:title></dc:title>
      </cc:Work>
    </rdf:RDF>
  </metadata>
  <g id="layer1">
    <path id="path819" d="M 95.720495,132.83553 C 95.720494,132.839 95.720471,132.84224 95.720469,132.8457 C 95.720818,132.84231 95.721232,132.83891 95.721711,132.83553 Z M 98.931009,132.83613 C 98.931337,132.83927 98.93161,132.84241 98.931828,132.84554 C 98.931855,132.84237 98.931824,132.83931 98.931854,132.83613 Z M 98.931828,132.84797 C 98.930418,133.20984 98.211958,133.50289 97.326135,133.50292 C 96.440891,133.50289 95.722671,133.21021 95.720442,132.84858 C 95.680233,134.70851 95.527759,135.57984 94.82963,136.18884 C 95.975391,136.6165 96.264772,135.59289 96.490998,135.59321 C 96.956452,135.59386 96.772203,136.53528 97.435108,136.5221 C 98.098014,136.50892 97.908311,135.5912 98.319051,135.59369 C 98.574186,135.59523 98.952829,136.67608 100.1006,136.23875 C 99.308868,135.53629 98.995072,134.58633 98.931828,132.84797 Z" style="fill:#963434;fill-opacity:0.5;fill-rule:evenodd;stroke:#000000;stroke-width:0.25566971;stroke-linecap:round;stroke-linejoin:round;stroke-miterlimit:4;stroke-dasharray:none;stroke-opacity:1" />
    <ellipse cx="97.326134" cy="132.84694" rx="1.6058189" ry="0.65599406" id="path817" style="opacity:1;fill:#d4ac82;fill-opacity:0.5;fill-rule:nonzero;stroke:#000000;stroke-width:0.25566971;stroke-linecap:round;stroke-linejoin:round;stroke-miterlimit:4;stroke-dasharray:none;stroke-dashoffset:0;stroke-opacity:1;paint-order:normal" />
    <path style="opacity:1;fill:#ffffff;fill-opacity:1;fill-rule:nonzero;stroke:#000000;stroke-width:2.3;stroke-linecap:round;stroke-linejoin:round;stroke-miterlimit:4;stroke-dasharray:none;stroke-dashoffset:0;stroke-opacity:1;paint-order:normal" id="path840" ry="11.759858" rx="31.404167" cy="104.83321" cx="94.747047" />
    <path id="path844" d="M 96.153831,135.07545 C 96.408001,134.62165 96.360771,133.98053 96.360771,133.98053" style="fill:none;fill-rule:evenodd;stroke:#000000;stroke-width:0.25566971;stroke-linecap:round;stroke-linejoin:round;stroke-miterlimit:4;stroke-dasharray:none;stroke-opacity:1" />
  </g>
</svg>

<svg xmlns="http://www.w3.org/2000/svg" viewBox="0 0 210 297" height="297mm" width="210mm">
    <g stroke="#000" stroke-width=".256" stroke-linecap="round" stroke-linejoin="round">
        <path d="M95.72 132.836v.01l.002-.01zm3.211 0v0zm0 .012c0 .362-.719.655-1.605.655-.885 0-1.603-.293-1.606-.654-.04 1.86-.192 2.73-.89 3.34 1.145.428 1.435-.596 1.661-.596.465 0 .281.942.944.93.663-.014.473-.932.884-.93.255.002.634 1.083 1.782.646-.792-.703-1.106-1.653-1.17-3.391z" fill="#963434" fill-opacity=".5" fill-rule="evenodd"/>
        <ellipse cx="97.326" cy="132.847" rx="1.606" ry=".656" fill="#d4ac82" fill-opacity=".5"/>
        <path d="M96.154 135.075c.254-.453.207-1.094.207-1.094" fill="none"/>
    </g>
</svg>
